outline/svg/ring_volume.svg

<svg xmlns="http://www.w3.org/2000/svg" width="24" height="24"><path fill="none" d="M0 0h24v24H0V0z"/><g fill="currentColor"><path d="M23.71 16.67A16.971 16.971 0 0 0 12 12C7.46 12 3.34 13.78.29 16.67c-.18.18-.29.43-.29.71 0 .28.11.53.29.71l2.48 2.48c.18.18.43.29.71.29.27 0 .52-.11.7-.28.79-.74 1.69-1.36 2.66-1.85.33-.16.56-.5.56-.9v-3.1c1.45-.48 3-.73 4.6-.73 1.6 0 3.15.25 4.6.72v3.1c0 .39.23.74.56.9.98.49 1.87 1.12 2.66 1.85.18.18.43.28.7.28.28 0 .53-.11.71-.29l2.48-2.48c.18-.18.29-.43.29-.71a.99.99 0 0 0-.29-.7zm-18.31.56c-.66.37-1.29.8-1.87 1.27l-1.07-1.07c.91-.75 1.9-1.39 2.95-1.9v1.7zm15.07 1.26c-.59-.48-1.21-.9-1.87-1.27v-1.7c1.04.51 2.03 1.15 2.94 1.9l-1.07 1.07zM21.16 6.26l-1.41-1.41-3.56 3.55 1.41 1.41s3.45-3.52 3.56-3.55zM11 2h2v5h-2zM6.4 9.81L7.81 8.4 4.26 4.84 2.84 6.26c.11.03 3.56 3.55 3.56 3.55z"/></g></svg>

<?xml version="1.0" encoding="utf-8"?>
<!-- Generator: Adobe Illustrator 19.1.0, SVG Export Plug-In . SVG Version: 6.00 Build 0)  -->
<svg version="1.1" xmlns="http://www.w3.org/2000/svg" xmlns:xlink="http://www.w3.org/1999/xlink" x="0px" y="0px" width="24px"
	 height="24px" viewBox="0 0 24 24" enable-background="new 0 0 24 24" xml:space="preserve">
<g id="Bounding_Boxes">
	<g id="ui_x5F_spec_x5F_header_copy_2">
	</g>
	<path fill="none" d="M0,0h24v24H0V0z"/>
</g>
<g id="Outline" fill="currentColor">
	<g id="ui_x5F_spec_x5F_header">
	</g>
	<g>
		<path d="M23.71,16.67C20.66,13.78,16.54,12,12,12c-4.54,0-8.66,1.78-11.71,4.67C0.11,16.85,0,17.1,0,17.38
			c0,0.28,0.11,0.53,0.29,0.71l2.48,2.48c0.18,0.18,0.43,0.29,0.71,0.29c0.27,0,0.52-0.11,0.7-0.28c0.79-0.74,1.69-1.36,2.66-1.85
			c0.33-0.16,0.56-0.5,0.56-0.9v-3.1C8.85,14.25,10.4,14,12,14c1.6,0,3.15,0.25,4.6,0.72v3.1c0,0.39,0.23,0.74,0.56,0.9
			c0.98,0.49,1.87,1.12,2.66,1.85c0.18,0.18,0.43,0.28,0.7,0.28c0.28,0,0.53-0.11,0.71-0.29l2.48-2.48C23.89,17.9,24,17.65,24,17.37
			C24,17.1,23.89,16.85,23.71,16.67z M5.4,17.23c-0.66,0.37-1.29,0.8-1.87,1.27l-1.07-1.07c0.91-0.75,1.9-1.39,2.95-1.9V17.23z
			 M20.47,18.49c-0.59-0.48-1.21-0.9-1.87-1.27v-1.7c1.04,0.51,2.03,1.15,2.94,1.9L20.47,18.49z"/>
		<path d="M21.16,6.26l-1.41-1.41L16.19,8.4l1.41,1.41C17.6,9.81,21.05,6.29,21.16,6.26z"/>
		<rect x="11" y="2" width="2" height="5"/>
		<path d="M6.4,9.81L7.81,8.4L4.26,4.84L2.84,6.26C2.95,6.29,6.4,9.81,6.4,9.81z"/>
	</g>
</g>
</svg>
